packages/kaspersky-hexa-ui-icons/src/iconsSVGs/16/Disike.svg

<svg width="16" height="16" viewBox="0 0 16 16" fill="none" xmlns="http://www.w3.org/2000/svg">
<path fill-rule="evenodd" clip-rule="evenodd" d="M6.1894 12.7698C5.93754 13.8375 7.18127 14.618 8.03318 13.9269L12.0532 10.6657C12.2288 10.5233 12.3307 10.3093 12.3307 10.0833V3.56177C12.3307 2.59527 11.5472 1.81177 10.5807 1.81177H4.86829C4.26829 1.81177 3.72218 2.15805 3.4663 2.70075L1.23588 7.43141C0.688588 8.59219 1.53543 9.92771 2.81876 9.92771H6.85984L6.1894 12.7698ZM10.8307 9.72596L7.88487 12.1157L8.53731 9.34991C8.58994 9.12683 8.53767 8.89194 8.39542 8.71223C8.25317 8.53251 8.03655 8.42771 7.80735 8.42771H2.81876C2.63543 8.42771 2.51445 8.23692 2.59264 8.0711L4.82306 3.34044C4.83132 3.32294 4.84893 3.31177 4.86829 3.31177H10.5807C10.7188 3.31177 10.8307 3.4237 10.8307 3.56177V9.72596Z" fill="black"/>
<path d="M13.4333 9.62582C13.4333 10.04 13.7691 10.3758 14.1833 10.3758C14.5975 10.3758 14.9333 10.04 14.9333 9.62582V2.58019C14.9333 2.16598 14.5975 1.83019 14.1833 1.83019C13.7691 1.83019 13.4333 2.16598 13.4333 2.58019V9.62582Z" fill="black"/>
</svg>

<svg xmlns="http://www.w3.org/2000/svg" width="16" height="16" fill="none" viewBox="0 0 16 16"><path fill="#000" fill-rule="evenodd" d="M6.1894 12.7698c-.2519 1.0677.9919 1.8482 1.8438 1.1571l4.02-3.2612a.75.75 0 0 0 .2775-.5824V3.5618c0-.9665-.7835-1.75-1.75-1.75H4.8683a1.55 1.55 0 0 0-1.402.889L1.2359 7.4314c-.5473 1.1608.2995 2.4963 1.5829 2.4963h4.041zm4.6413-3.0438-2.9458 2.3897.6524-2.7658a.75.75 0 0 0-.73-.9222H2.8188c-.1834 0-.3043-.1908-.2262-.3566l2.2305-4.7307a.05.05 0 0 1 .0452-.0286h5.7124a.25.25 0 0 1 .25.25z" clip-rule="evenodd"/><path fill="#000" d="M13.4333 9.6258a.75.75 0 0 0 1.5 0V2.5802a.75.75 0 0 0-1.5 0z"/></svg>
